TV/Source/Nova Sport 2 HD - Original.svg

<svg height="2.25002mm" viewBox="0 0 6.1524439 2.25002" width="6.152444mm" xmlns="http://www.w3.org/2000/svg" xmlns:xlink="http://www.w3.org/1999/xlink"><clipPath id="a"><path d="m226.006 185.173h17.44v6.378h-17.44z"/></clipPath><g transform="translate(-76.505184 -164.85695)"><path d="m76.505184 167.10697h5.102225v-2.25002h-5.102225z" fill="#1b1e1d"/><g clip-path="url(#a)" transform="matrix(.35277777 0 0 -.35277777 -3.224709 232.43189)"><g transform="translate(227.3212 190.2466)"><path d="m0 0h .286v-.15c.079.106.205.172.357.172.272 0 .46-.198.46-.469v-.686h-.287v.636c0 .151-.11.259-.264.259s-.266-.108-.266-.259v-.636h-.286z" fill="#fff"/></g><g transform="translate(229.1923 189.3531)"><path d="m0 0c .176 0 .31.141.31.328 0 .185-.134.326-.31.326s-.308-.141-.308-.326c0-.187.132-.328.308-.328m0 .915c.343 0 .605-.255.605-.587 0-.335-.262-.59-.605-.59s-.605.255-.605.59c0 .332.262.587.605.587" fill="#fff"/></g><g transform="translate(229.7865 190.2466)"><path d="m0 0h .308l.313-.834.314.834h.289l-.451-1.133h-.322z" fill="#fff"/></g><g transform="translate(231.6108 189.3531)"><path d="m0 0c .176 0 .31.141.31.328 0 .185-.134.326-.31.326s-.308-.141-.308-.326c0-.187.132-.328.308-.328m.31-.099c-.09-.101-.215-.163-.367-.163-.31 0-.548.255-.548.59 0 .332.238.587.548.587.152 0 .277-.061.367-.165v.144h.286v-1.134h-.286z" fill="#fff"/></g><g transform="translate(237.5679 186.9437)"><path d="m0 0 .888.738c.079.067.146.156.146.278 0 .116-.076.216-.256.216-.15 0-.256-.088-.256-.28l-.537.061c.03.457.332.695.793.695.467 0 .793-.253.793-.677 0-.278-.162-.506-.357-.659l-.464-.372h.836v-.458h-1.586z" fill="#35b9d0"/></g><g transform="translate(227.7736 187.1633)"><path d="m0 0c .034-.153.131-.232.317-.232.159 0 .26.061.26.168 0 .366-1.056.119-1.056.897 0 .375.345.656.781.656.445 0 .744-.241.796-.601l-.525-.107c-.033.159-.125.232-.289.232-.141 0-.226-.061-.226-.165 0-.335 1.055-.091 1.055-.897 0-.375-.353-.659-.811-.659-.461 0-.781.251-.827.604z" fill="#fff"/></g><g transform="translate(230.165 187.5995)"><path d="m0 0c .177 0 .29.119.29.281 0 .164-.113.283-.29.283h-.424v-.564zm-.943 1.022h.943c.506 0 .827-.317.827-.747 0-.431-.321-.733-.827-.733h-.424v-.655h-.519z" fill="#fff"/></g><g transform="translate(232.3185 186.9315)"><path d="m0 0c .336 0 .592.271.592.622s-.256.623-.592.623-.592-.272-.592-.623.256-.622.592-.622m0 1.72c.637 0 1.129-.479 1.129-1.098 0-.619-.492-1.098-1.129-1.098s-1.129.479-1.129 1.098.492 1.098 1.129 1.098" fill="#fff"/></g><g transform="translate(234.6976 187.6605)"><path d="m0 0c .156 0 .256.107.256.25 0 .147-.1.253-.256.253h-.427v-.503zm-.217-.473h-.21v-.701h-.519v2.135h.946c.485 0 .793-.305.793-.717 0-.299-.165-.54-.436-.653l.497-.765h-.616z" fill="#fff"/></g><g transform="translate(236.2411 188.1638)"><path d="m0 0h-.625v.458h1.769v-.458h-.625v-1.678h-.519z" fill="#fff"/></g><g transform="translate(241.0372 191.5513)"><path d="m0 0h .284v-.46h.501v.46h.285v-1.17h-.285v.46h-.501v-.46h-.284z" fill="#1b1e1d"/></g><g transform="translate(242.8213 190.6319)"><path d="m0 0c .199 0 .331.14.331.334 0 .196-.132.335-.331.335h-.177v-.669zm-.461.919h.486c.348 0 .6-.254.6-.585 0-.331-.252-.585-.6-.585h-.486z" fill="#1b1e1d"/></g></g></g></svg>

<?xml version="1.0" encoding="UTF-8" standalone="no"?>
<!-- Created with Inkscape (http://www.inkscape.org/) -->

<svg
   xmlns:dc="http://purl.org/dc/elements/1.1/"
   xmlns:cc="http://creativecommons.org/ns#"
   xmlns:rdf="http://www.w3.org/1999/02/22-rdf-syntax-ns#"
   xmlns:svg="http://www.w3.org/2000/svg"
   xmlns="http://www.w3.org/2000/svg"
   xmlns:sodipodi="http://sodipodi.sourceforge.net/DTD/sodipodi-0.dtd"
   xmlns:inkscape="http://www.inkscape.org/namespaces/inkscape"
   width="6.1524439mm"
   height="2.25002mm"
   viewBox="0 0 6.1524439 2.25002"
   version="1.1"
   id="svg40559"
   inkscape:version="0.92.0 r15299"
   sodipodi:docname="Nova Sport 2 HD - Original.svg">
  <defs
     id="defs40553">
    <clipPath
       clipPathUnits="userSpaceOnUse"
       id="clipPath74730">
      <path
         d="m 226.003,201.278 h 17.446 v 6.484 h -17.446 z"
         id="path74728"
         inkscape:connector-curvature="0" />
    </clipPath>
    <clipPath
       clipPathUnits="userSpaceOnUse"
       id="clipPath74964">
      <path
         d="m 226.006,185.173 h 17.44 v 6.378 h -17.44 z"
         id="path74962"
         inkscape:connector-curvature="0" />
    </clipPath>
  </defs>
  <sodipodi:namedview
     id="base"
     pagecolor="#ffffff"
     bordercolor="#666666"
     borderopacity="1.0"
     inkscape:pageopacity="0.0"
     inkscape:pageshadow="2"
     inkscape:zoom="22.4"
     inkscape:cx="17.565274"
     inkscape:cy="2.8598701"
     inkscape:document-units="mm"
     inkscape:current-layer="layer1"
     showgrid="false"
     fit-margin-top="0"
     fit-margin-left="0"
     fit-margin-right="0"
     fit-margin-bottom="0"
     inkscape:window-width="1920"
     inkscape:window-height="1017"
     inkscape:window-x="-8"
     inkscape:window-y="-8"
     inkscape:window-maximized="1" />
  <metadata
     id="metadata40556">
    <rdf:RDF>
      <cc:Work
         rdf:about="">
        <dc:format>image/svg+xml</dc:format>
        <dc:type
           rdf:resource="http://purl.org/dc/dcmitype/StillImage" />
        <dc:title></dc:title>
      </cc:Work>
    </rdf:RDF>
  </metadata>
  <g
     inkscape:label="Layer 1"
     inkscape:groupmode="layer"
     id="layer1"
     transform="translate(-76.505184,-164.85695)">
    <path
       d="m 76.505184,167.10697 h 5.102225 v -2.25002 h -5.102225 z"
       style="fill:#1b1e1d;fill-opacity:1;fill-rule:nonzero;stroke:none;stroke-width:0.35277775"
       id="path74956"
       inkscape:connector-curvature="0" />
    <g
       transform="matrix(0.35277777,0,0,-0.35277777,-3.2247093,232.43189)"
       id="g74958">
      <g
         id="g74960"
         clip-path="url(#clipPath74964)">
        <g
           id="g74966"
           transform="translate(227.3212,190.2466)">
          <path
             d="m 0,0 h 0.286 v -0.15 c 0.079,0.106 0.205,0.172 0.357,0.172 0.272,0 0.46,-0.198 0.46,-0.469 V -1.133 H 0.816 v 0.636 c 0,0.151 -0.11,0.259 -0.264,0.259 -0.154,0 -0.266,-0.108 -0.266,-0.259 V -1.133 H 0 Z"
             style="fill:#ffffff;fill-opacity:1;fill-rule:nonzero;stroke:none"
             id="path74968"
             inkscape:connector-curvature="0" />
        </g>
        <g
           id="g74970"
           transform="translate(229.1923,189.3531)">
          <path
             d="M 0,0 C 0.176,0 0.31,0.141 0.31,0.328 0.31,0.513 0.176,0.654 0,0.654 -0.176,0.654 -0.308,0.513 -0.308,0.328 -0.308,0.141 -0.176,0 0,0 m 0,0.915 c 0.343,0 0.605,-0.255 0.605,-0.587 0,-0.335 -0.262,-0.59 -0.605,-0.59 -0.343,0 -0.605,0.255 -0.605,0.59 0,0.332 0.262,0.587 0.605,0.587"
             style="fill:#ffffff;fill-opacity:1;fill-rule:nonzero;stroke:none"
             id="path74972"
             inkscape:connector-curvature="0" />
        </g>
        <g
           id="g74974"
           transform="translate(229.7865,190.2466)">
          <path
             d="M 0,0 H 0.308 L 0.621,-0.834 0.935,0 H 1.224 L 0.773,-1.133 H 0.451 Z"
             style="fill:#ffffff;fill-opacity:1;fill-rule:nonzero;stroke:none"
             id="path74976"
             inkscape:connector-curvature="0" />
        </g>
        <g
           id="g74978"
           transform="translate(231.6108,189.3531)">
          <path
             d="M 0,0 C 0.176,0 0.31,0.141 0.31,0.328 0.31,0.513 0.176,0.654 0,0.654 -0.176,0.654 -0.308,0.513 -0.308,0.328 -0.308,0.141 -0.176,0 0,0 M 0.31,-0.099 C 0.22,-0.2 0.095,-0.262 -0.057,-0.262 c -0.31,0 -0.548,0.255 -0.548,0.59 0,0.332 0.238,0.587 0.548,0.587 0.152,0 0.277,-0.061 0.367,-0.165 V 0.894 H 0.596 V -0.24 H 0.31 Z"
             style="fill:#ffffff;fill-opacity:1;fill-rule:nonzero;stroke:none"
             id="path74980"
             inkscape:connector-curvature="0" />
        </g>
        <g
           id="g74982"
           transform="translate(237.5679,186.9437)">
          <path
             d="m 0,0 0.888,0.738 c 0.079,0.067 0.146,0.156 0.146,0.278 0,0.116 -0.076,0.216 -0.256,0.216 -0.15,0 -0.256,-0.088 -0.256,-0.28 l -0.537,0.061 c 0.03,0.457 0.332,0.695 0.793,0.695 0.467,0 0.793,-0.253 0.793,-0.677 0,-0.278 -0.162,-0.506 -0.357,-0.659 L 0.75,0 H 1.586 V -0.458 H 0 Z"
             style="fill:#35b9d0;fill-opacity:1;fill-rule:nonzero;stroke:none"
             id="path74984"
             inkscape:connector-curvature="0" />
        </g>
        <g
           id="g74986"
           transform="translate(227.7736,187.1633)">
          <path
             d="m 0,0 c 0.034,-0.153 0.131,-0.232 0.317,-0.232 0.159,0 0.26,0.061 0.26,0.168 0,0.366 -1.056,0.119 -1.056,0.897 0,0.375 0.345,0.656 0.781,0.656 0.445,0 0.744,-0.241 0.796,-0.601 L 0.573,0.781 C 0.54,0.94 0.448,1.013 0.284,1.013 0.143,1.013 0.058,0.952 0.058,0.848 c 0,-0.335 1.055,-0.091 1.055,-0.897 0,-0.375 -0.353,-0.659 -0.811,-0.659 -0.461,0 -0.781,0.251 -0.827,0.604 z"
             style="fill:#ffffff;fill-opacity:1;fill-rule:nonzero;stroke:none"
             id="path74988"
             inkscape:connector-curvature="0" />
        </g>
        <g
           id="g74990"
           transform="translate(230.165,187.5995)">
          <path
             d="M 0,0 C 0.177,0 0.29,0.119 0.29,0.281 0.29,0.445 0.177,0.564 0,0.564 H -0.424 V 0 Z M -0.943,1.022 H 0 c 0.506,0 0.827,-0.317 0.827,-0.747 0,-0.431 -0.321,-0.733 -0.827,-0.733 h -0.424 v -0.655 h -0.519 z"
             style="fill:#ffffff;fill-opacity:1;fill-rule:nonzero;stroke:none"
             id="path74992"
             inkscape:connector-curvature="0" />
        </g>
        <g
           id="g74994"
           transform="translate(232.3185,186.9315)">
          <path
             d="M 0,0 C 0.336,0 0.592,0.271 0.592,0.622 0.592,0.973 0.336,1.245 0,1.245 -0.336,1.245 -0.592,0.973 -0.592,0.622 -0.592,0.271 -0.336,0 0,0 m 0,1.72 c 0.637,0 1.129,-0.479 1.129,-1.098 0,-0.619 -0.492,-1.098 -1.129,-1.098 -0.637,0 -1.129,0.479 -1.129,1.098 0,0.619 0.492,1.098 1.129,1.098"
             style="fill:#ffffff;fill-opacity:1;fill-rule:nonzero;stroke:none"
             id="path74996"
             inkscape:connector-curvature="0" />
        </g>
        <g
           id="g74998"
           transform="translate(234.6976,187.6605)">
          <path
             d="M 0,0 C 0.156,0 0.256,0.107 0.256,0.25 0.256,0.397 0.156,0.503 0,0.503 H -0.427 V 0 Z m -0.217,-0.473 h -0.21 V -1.174 H -0.946 V 0.961 H 0 c 0.485,0 0.793,-0.305 0.793,-0.717 0,-0.299 -0.165,-0.54 -0.436,-0.653 L 0.854,-1.174 H 0.238 Z"
             style="fill:#ffffff;fill-opacity:1;fill-rule:nonzero;stroke:none"
             id="path75000"
             inkscape:connector-curvature="0" />
        </g>
        <g
           id="g75002"
           transform="translate(236.2411,188.1638)">
          <path
             d="M 0,0 H -0.625 V 0.458 H 1.144 V 0 H 0.519 V -1.678 H 0 Z"
             style="fill:#ffffff;fill-opacity:1;fill-rule:nonzero;stroke:none"
             id="path75004"
             inkscape:connector-curvature="0" />
        </g>
        <g
           id="g75006"
           transform="translate(241.0372,191.5513)">
          <path
             d="M 0,0 H 0.284 V -0.46 H 0.785 V 0 H 1.07 V -1.17 H 0.785 v 0.46 H 0.284 V -1.17 H 0 Z"
             style="fill:#1b1e1d;fill-opacity:1;fill-rule:nonzero;stroke:none"
             id="path75008"
             inkscape:connector-curvature="0" />
        </g>
        <g
           id="g75010"
           transform="translate(242.8213,190.6319)">
          <path
             d="M 0,0 C 0.199,0 0.331,0.14 0.331,0.334 0.331,0.53 0.199,0.669 0,0.669 H -0.177 V 0 Z m -0.461,0.919 h 0.486 c 0.348,0 0.6,-0.254 0.6,-0.585 0,-0.331 -0.252,-0.585 -0.6,-0.585 h -0.486 z"
             style="fill:#1b1e1d;fill-opacity:1;fill-rule:nonzero;stroke:none"
             id="path75012"
             inkscape:connector-curvature="0" />
        </g>
      </g>
    </g>
  </g>
</svg>
